icons/trash-16.svg

<svg xmlns="http://www.w3.org/2000/svg" width="16" height="16" viewBox="0 0 16 16"><path d="M11 1.75V3h2.25a.75.75 0 010 1.5H2.75a.75.75 0 010-1.5H5V1.75C5 .784 5.784 0 6.75 0h2.5C10.216 0 11 .784 11 1.75zM4.496 6.675l.66 6.6a.25.25 0 00.249.225h5.19a.25.25 0 00.249-.225l.66-6.6a.75.75 0 011.492.149l-.66 6.6A1.748 1.748 0 0110.595 15h-5.19a1.75 1.75 0 01-1.741-1.575l-.66-6.6a.75.75 0 111.492-.15zM6.5 1.75V3h3V1.75a.25.25 0 00-.25-.25h-2.5a.25.25 0 00-.25.25z"/></svg>

<svg xmlns="http://www.w3.org/2000/svg" width="16" height="16" viewBox="0 0 16 16">
  <defs/>
  <path d="M11,1.75 L11,3 L13.25,3 C13.664,3 14,3.336 14,3.75 C14,4.164 13.664,4.5 13.25,4.5 L2.75,4.5 C2.336,4.5 2,4.164 2,3.75 C2,3.336 2.336,3 2.75,3 L5,3 L5,1.75 C5,0.784 5.784,0 6.75,0 L9.25,0 C10.216,0 11,0.784 11,1.75 Z M4.496,6.675 L5.156,13.275 C5.169,13.403 5.277,13.5 5.405,13.5 L10.595,13.5 C10.723,13.5 10.831,13.403 10.844,13.275 L11.504,6.675 C11.556,6.272 11.918,5.984 12.322,6.024 C12.727,6.064 13.025,6.419 12.996,6.824 L12.336,13.424 C12.247,14.319 11.495,15 10.595,15 L5.405,15 C4.506,15 3.754,14.319 3.664,13.425 L3.004,6.825 C2.97,6.555 3.085,6.287 3.305,6.126 C3.525,5.965 3.815,5.936 4.062,6.05 C4.309,6.164 4.476,6.403 4.496,6.675 Z M6.5,1.75 L6.5,3 L9.5,3 L9.5,1.75 C9.5,1.612 9.388,1.5 9.25,1.5 L6.75,1.5 C6.612,1.5 6.5,1.612 6.5,1.75 Z"/>
</svg>
